!!!COM: Corelli, Arcangelo
!!!OTL: 
!!!ONM: Opus 3, No. 11
!!!OMV: 4
!!!CDT: 1653/2/17/-1713/1/8/
!!!OCY: Italia
**kern	**kern	**kern	**kern
*clefC	*clefC	*clefG	*clefG
*k[b-]	*k[b-]	*k[b-]	*k[b-]
*d:	*d:	*d:	*d:
*M3/4	*M3/4	*M3/4	*M3/4
2r	2r	2r	2r
4r	4r	4r	4dd
=1	=1	=1	=1
2.r	2.r	2r	4gg
.	.	.	8aa
.	.	.	8gg
.	.	4dd	4ff#
=2	=2	=2	=2
2r	2r	4gg	2bb-
.	.	8aa	.
.	.	8gg	.
4D	4D	4ff#	4aa
=3	=3	=3	=3
4G	4G	4bb-	4gg
8A	8A	2ccc	8ff#
8G	8G	.	8gg
4F#	4F#	.	4aa
=4	=4	=4	=4
2B-	2B-	2ddd	2dd
4G	4G	4b-	4gg
=5	=5	=5	=5
4C	4C	4g	4ee-
4F	4F	2a	4cc
4FF	4FF	.	4ff
=6	=6	=6	=6
2BB-	2BB-	2b-	4dd
.	.	.	4b-
4B-	4B-	4ff	[4dd
=7	=7	=7	=7
4E	4E	4gg	4dd]
2F#	2F#	8aa	[2cc
.	.	8gg	.
.	.	4aa	.
=8	=8	=8	=8
4G	4G	2dd	4cc]
4GG	4GG	.	4b-
[4G	[4G	4ee-	4g
=9	=9	=9	=9
4G]	4G]	4cc	4a
4F	4F	4dd	4d
4D	4D	4f#	[4dd
=10	=10	=10	=10
4E-	4E-	4g	4dd]
2E-	2E-	4.a	2cc
.	.	8g	.
=11	=11	=11	=11
4D	4D	[2.f#	[2.dd
4F#	4F#	.	.
4A	4A	.	.
=12	=12	=12	=12
2D	2D	2f#]	2dd]
4r	4r	4r	4aa
=13	=13	=13	=13
2.r	2.r	2r	4ff#
.	.	.	8ff#
.	.	.	8gg
.	.	4ddd	4aa
=14	=14	=14	=14
2r	2r	4bb-	2dd
.	.	8bb-	.
.	.	8ccc	.
4d	4d	4ddd	4aa
=15	=15	=15	=15
4B-	4B-	2gg	4bb-
8B-	8B-	.	8ccc
8c	8c	.	8bb-
4d	4d	4ff#	[4aa
=16	=16	=16	=16
4G	4G	2.bb-	4aa]
4B-	4B-	.	[2gg
4G	4G	.	.
=17	=17	=17	=17
4d	4d	2.aa	4gg]
4F	4F	.	[2ff
4D	4D	.	.
=18	=18	=18	=18
4E-	4E-	2.gg	4ff]
4G	4G	.	[2ee-
4A	4A	.	.
=19	=19	=19	=19
4B-	4B-	2.ff	4ee-]
4BB-	4BB-	.	[2dd
4FF	4FF	.	.
=20	=20	=20	=20
4GG	4GG	2.ee-	4dd]
4AA	4AA	.	[2cc
4FF	4FF	.	.
=21	=21	=21	=21
2BB-	2BB-	2dd	4cc]
.	.	.	[2b-
4D	4D	4ff	.
=22	=22	=22	=22
4E-	4E-	4gg	4b-]
4F	4F	2cc	2a
4FF	4FF	.	.
=23	=23	=23	=23
2BB-	2BB-	2b-	2b-
4D	4D	4r	4ff
=24	=24	=24	=24
2E-	2E-	2r	2gg
4E-	4E-	4b-	4g
=25	=25	=25	=25
2E-	2E-	2cc	2a
4D	4D	[4dd	[4b-
=26	=26	=26	=26
4E-	4E-	4dd]	4b-]
2F	2F	2cc	2a
=27	=27	=27	=27
2BB-	2BB-	2b-	2b-
4r	4r	4r	4dd
=28	=28	=28	=28
2.r	2.r	2r	4gg
.	.	.	8aa
.	.	.	8gg
.	.	4dd	4ff#
=29	=29	=29	=29
2r	2r	4gg	2bb-
.	.	8aa	.
.	.	8gg	.
4D	4D	4ff#	4aa
=30	=30	=30	=30
4G	4G	4bb-	4gg
8A	8A	2ccc	8ff#
8G	8G	.	8gg
4F#	4F#	.	4aa
=31	=31	=31	=31
2B-	2B-	2ddd	2dd
4G	4G	4b-	4gg
=32	=32	=32	=32
4C	4C	4g	4ee-
4F	4F	2a	4cc
4FF	4FF	.	4ff
=33	=33	=33	=33
2BB-	2BB-	2b-	4dd
.	.	.	4b-
4B-	4B-	4dd	[4bb-
=34	=34	=34	=34
4E	4E	2cc	4bb-]
4F#	4F#	.	[2aa
4D	4D	4dd	.
=35	=35	=35	=35
2G	2G	2b-	4aa]
.	.	.	4dd
4BB-	4BB-	4dd	[4gg
=36	=36	=36	=36
4C	4C	8cc	4gg]
.	.	8b-	.
4D	4D	2a	2ff#
4DD	4DD	.	.
=37	=37	=37	=37
2GG	2GG	2g	4gg
.	.	.	4gg
4BB-	4BB-	4dd	4ff
=38	=38	=38	=38
2C	2C	4gg	4ee-
.	.	4g	4dd
4C	4C	4ee-	4cc
=39	=39	=39	=39
2D	2D	2f#	2cc
[4C	[4C	[4g	[4b-
=40	=40	=40	=40
4C]	4C]	4g]	4b-]
2D	2D	4.g	2a
.	.	8f#	.
=41	=41	=41	=41
2GG	2GG	2g	4g
.	.	.	4gg
4BB-	4BB-	4dd	4ff
=42	=42	=42	=42
2C	2C	4gg	4ee-
.	.	4g	4dd
4C	4C	4ee-	4cc
=43	=43	=43	=43
2D	2D	2f#	2cc
[4C	[4C	[4g	[4b-
=44	=44	=44	=44
4C]	4C]	4g]	4b-]
2D	2D	4.g	2a
.	.	8f#	.
=45	=45	=45	=45
2GG	2GG	2g	2g
4r	4r	4r	4r
==	==	==	==
*-	*-	*-	*-
!!!RWG: This file only contains pitch and duration data.
!!!RWG: Transposing instruments are not transposed.
!!!RWG: Durations of rests and tied notes may be interpreted.
!!!RWG: Key is interpreted using the Humdrum key tool.
!!!SCA: 
!!!YOR: Chrysander Edition
!!!AGN: chamber
!!!AFT: stage1
!!!ENC: F. Bennion
!!!END: 1997/04/15
!!!AST: baroque
!!!YEC: Copyright 1994, Center for Computer Assisted Research in the Humanities
!!!YEM: Rights to all derivative electronic formats reserved.
!!!YEM: Refer to licensing agreement for further details.
!!!YEN: United States of America
!!!EED: W.B. Hewlett
!!!KEY: 384773148
!!!EMD: Converted from MuseData to Humdrum Aug 9, 1999, by Bret Aarden using muse2kern.
!!!VTS: 4192874258
